X: 32422
T: Piper's Picnic, The
R: jig
M: 6/8
K: Amixolydian
|:~A3 AGE|cde dBG|~A3 AGE|EDE G3{AB}|
~A3 AGE|cde dBG|cBA BAG|1 EFG A2G:|2 EFG A2B||
|:cee cee|ceg edc|Bzg g2d|BGg dBG|
cBc dcd|ede a2g|edc BAG|1 EFG A2B:|2 EFG A3||

